X: 66
T:Estampie
T:Trotto
O:France
R:Estampie
C:
<end>
<start>
XIVe si?cle
Z:Transcrit et/ou corrig? par Michel BELLON - 2005-03-04
Z:Pour toute observation mailto:galouvielle@free.fr
M:6/8
L:1/8
Q:3/8=126
K:Fmaj
G2G dGd | d2c BAB | GFG AGA | F3 G2A | BAG A2E | A3 z2z | G2G dGd | d2c BAB |
GFG AGA | F3 G2A | c2d c2B | AGA FG2 +fine+ || (c/2B/2A)B c2d | (c/2B/2A)B GFG | (B/2A/2G)A B2c | (c/2B/2A)B GFG | 
(c/2B/2A)B c2d | (c/2B/2A)B GFG | g2f e3 | (g/2f/2e)f d2G | dGd d3 | G2G dGd | d2c BAB | GFG AGA | 
F3 G2A | BAG A2E | A3z2z | G2G dGd | d2c BAB | GFG AGA | F3G2A | c2d c2B | AGA FG2 |
(g2f/2e/2 d2e/2f/2 | g2f/2e/2 d3) | g2f e3 | (g/2f/2e)f d2G | dGd d3 +D.C.+ |]
<end>
<start>
